public/mascots/dropout/bear-homecoming-128x128.svg

<svg xmlns="http://www.w3.org/2000/svg" width="128" height="128" viewBox="0 0 128 128"><defs><linearGradient id="b" x1="0%" x2="100%" y1="0%" y2="100%"><stop offset="0%" style="stop-color:#8b4513"/><stop offset="100%" style="stop-color:#654321"/></linearGradient><linearGradient id="c" x1="0%" x2="0%" y1="0%" y2="100%"><stop offset="0%" style="stop-color:#4169e1"/><stop offset="100%" style="stop-color:#191970"/></linearGradient><filter id="a" width="140%" height="140%" x="-20%" y="-20%"><feDropShadow dx="1" dy="1" flood-opacity=".3" stdDeviation="1"/></filter></defs><g filter="url(#a)"><circle cx="40" cy="32" r="16" fill="url(#b)"/><circle cx="88" cy="32" r="16" fill="url(#b)"/><circle cx="40" cy="32" r="8" fill="#d2691e"/><circle cx="88" cy="32" r="8" fill="#d2691e"/></g><ellipse cx="64" cy="48" fill="url(#b)" rx="32" ry="28"/><ellipse cx="64" cy="56" fill="#deb887" rx="16" ry="12"/><ellipse cx="64" cy="52" fill="#333" rx="6" ry="5"/><ellipse cx="52" cy="44" fill="#fff" rx="6" ry="7"/><ellipse cx="53" cy="44" fill="#333" rx="3" ry="4"/><ellipse cx="76" cy="44" fill="#fff" rx="6" ry="7"/><ellipse cx="75" cy="44" fill="#333" rx="3" ry="4"/><g filter="url(#a)"><path fill="gold" d="m32 24 8-16 8 8 8-8 8 8 8-8 8 8 8-8 8 16Z"/><circle cx="40" cy="8" r="4" fill="#ff69b4"/><circle cx="56" cy="8" r="4" fill="#ff69b4"/><circle cx="72" cy="8" r="4" fill="#ff69b4"/><circle cx="88" cy="8" r="4" fill="#ff69b4"/></g><path fill="url(#c)" d="M40 72q0-12 24-16 24 4 24 16 0 32-24 40-24-8-24-40"/><path stroke="#191970" stroke-width="2" d="M64 64v40"/><ellipse cx="36" cy="84" fill="url(#c)" rx="8" ry="12"/><ellipse cx="92" cy="84" fill="url(#c)" rx="8" ry="12"/></svg>

<svg xmlns="http://www.w3.org/2000/svg" viewBox="0 0 128 128" width="128" height="128">
  <defs>
    <linearGradient id="hbBearBrown128" x1="0%" y1="0%" x2="100%" y2="100%">
      <stop offset="0%" style="stop-color:#8B4513"/>
      <stop offset="100%" style="stop-color:#654321"/>
    </linearGradient>
    <linearGradient id="hbBearJacket128" x1="0%" y1="0%" x2="0%" y2="100%">
      <stop offset="0%" style="stop-color:#4169E1"/>
      <stop offset="100%" style="stop-color:#191970"/>
    </linearGradient>
    <filter id="hbShadow128" x="-20%" y="-20%" width="140%" height="140%">
      <feDropShadow dx="1" dy="1" stdDeviation="1" flood-opacity="0.3"/>
    </filter>
  </defs>
  
  <g filter="url(#hbShadow128)">
    <circle cx="40" cy="32" r="16" fill="url(#hbBearBrown128)"/>
    <circle cx="88" cy="32" r="16" fill="url(#hbBearBrown128)"/>
    <circle cx="40" cy="32" r="8" fill="#D2691E"/>
    <circle cx="88" cy="32" r="8" fill="#D2691E"/>
  </g>
  
  <ellipse cx="64" cy="48" rx="32" ry="28" fill="url(#hbBearBrown128)"/>
  
  <ellipse cx="64" cy="56" rx="16" ry="12" fill="#DEB887"/>
  <ellipse cx="64" cy="52" rx="6" ry="5" fill="#333"/>
  
  <ellipse cx="52" cy="44" rx="6" ry="7" fill="#FFF"/>
  <ellipse cx="53" cy="44" rx="3" ry="4" fill="#333"/>
  <ellipse cx="76" cy="44" rx="6" ry="7" fill="#FFF"/>
  <ellipse cx="75" cy="44" rx="3" ry="4" fill="#333"/>
  
  <!-- Homecoming Crown -->
  <g filter="url(#hbShadow128)">
    <path d="M32 24 L40 8 L48 16 L56 8 L64 16 L72 8 L80 16 L88 8 L96 24 Z" fill="#FFD700"/>
    <circle cx="40" cy="8" r="4" fill="#FF69B4"/>
    <circle cx="56" cy="8" r="4" fill="#FF69B4"/>
    <circle cx="72" cy="8" r="4" fill="#FF69B4"/>
    <circle cx="88" cy="8" r="4" fill="#FF69B4"/>
  </g>
  
  <path d="M40 72 Q40 60 64 56 Q88 60 88 72 Q88 104 64 112 Q40 104 40 72Z" fill="url(#hbBearJacket128)"/>
  <line x1="64" y1="64" x2="64" y2="104" stroke="#191970" stroke-width="2"/>
  
  <ellipse cx="36" cy="84" rx="8" ry="12" fill="url(#hbBearJacket128)"/>
  <ellipse cx="92" cy="84" rx="8" ry="12" fill="url(#hbBearJacket128)"/>
</svg>
